source/images/logo-academy-text.svg

<svg width="112" height="15" viewBox="0 0 112 15" fill="none" xmlns="http://www.w3.org/2000/svg">
<path d="M9.752 0.535999V12H8.2V6.784H2.016V12H0.464V0.535999H2.016V5.648H8.2V0.535999H9.752ZM20.4348 1.84H16.7228V12H15.1788V1.84H11.4588V0.535999H20.4348V1.84ZM34.0639 0.535999V12H32.7039V3.576C32.7039 3.464 32.7065 3.344 32.7119 3.216C32.7225 3.088 32.7332 2.95733 32.7439 2.824L28.8079 9.992C28.6852 10.232 28.4985 10.352 28.2479 10.352H28.0239C27.7732 10.352 27.5865 10.232 27.4639 9.992L23.4479 2.792C23.4799 3.07467 23.4959 3.336 23.4959 3.576V12H22.1359V0.535999H23.2799C23.4185 0.535999 23.5252 0.549333 23.5999 0.575999C23.6745 0.602666 23.7465 0.677333 23.8159 0.799999L27.7759 7.856C27.8399 7.984 27.9012 8.11733 27.9599 8.256C28.0239 8.39467 28.0825 8.536 28.1359 8.68C28.1892 8.536 28.2452 8.39467 28.3039 8.256C28.3625 8.112 28.4265 7.976 28.4959 7.848L32.3839 0.799999C32.4479 0.677333 32.5172 0.602666 32.5919 0.575999C32.6719 0.549333 32.7812 0.535999 32.9199 0.535999H34.0639ZM43.4993 10.696V12H36.9953V0.535999H38.5393V10.696H43.4993ZM54.3801 7.744L52.5801 3.08C52.5268 2.94133 52.4708 2.78133 52.4121 2.6C52.3535 2.41333 52.2975 2.216 52.2441 2.008C52.1321 2.44 52.0175 2.8 51.9001 3.088L50.1001 7.744H54.3801ZM57.6121 12H56.4121C56.2735 12 56.1615 11.9653 56.0761 11.896C55.9908 11.8267 55.9268 11.7387 55.8841 11.632L54.8121 8.864H49.6681L48.5961 11.632C48.5641 11.728 48.5028 11.8133 48.4121 11.888C48.3215 11.9627 48.2095 12 48.0761 12H46.8761L51.4601 0.535999H53.0281L57.6121 12ZM64.2055 5.336C64.1628 5.39467 64.1202 5.44 64.0775 5.472C64.0348 5.504 63.9762 5.52 63.9015 5.52C63.8215 5.52 63.7335 5.488 63.6375 5.424C63.5415 5.35467 63.4215 5.28 63.2775 5.2C63.1388 5.12 62.9655 5.048 62.7575 4.984C62.5548 4.91467 62.3042 4.88 62.0055 4.88C61.6055 4.88 61.2535 4.952 60.9495 5.096C60.6455 5.23467 60.3895 5.43733 60.1815 5.704C59.9788 5.97067 59.8242 6.29333 59.7175 6.672C59.6162 7.05067 59.5655 7.47467 59.5655 7.944C59.5655 8.43467 59.6215 8.872 59.7335 9.256C59.8455 9.63467 60.0028 9.95467 60.2055 10.216C60.4135 10.472 60.6615 10.6693 60.9495 10.808C61.2428 10.9413 61.5708 11.008 61.9335 11.008C62.2802 11.008 62.5655 10.968 62.7895 10.888C63.0135 10.8027 63.1975 10.7093 63.3415 10.608C63.4908 10.5067 63.6135 10.416 63.7095 10.336C63.8108 10.2507 63.9095 10.208 64.0055 10.208C64.1228 10.208 64.2135 10.2533 64.2775 10.344L64.6775 10.864C64.5015 11.0827 64.3015 11.2693 64.0775 11.424C63.8535 11.5787 63.6108 11.7093 63.3495 11.816C63.0935 11.9173 62.8242 11.992 62.5415 12.04C62.2588 12.088 61.9708 12.112 61.6775 12.112C61.1708 12.112 60.6988 12.0187 60.2615 11.832C59.8295 11.6453 59.4535 11.376 59.1335 11.024C58.8135 10.6667 58.5628 10.2293 58.3815 9.712C58.2002 9.19467 58.1095 8.60533 58.1095 7.944C58.1095 7.34133 58.1922 6.784 58.3575 6.272C58.5282 5.76 58.7735 5.32 59.0935 4.952C59.4188 4.57867 59.8162 4.288 60.2855 4.08C60.7602 3.872 61.3042 3.768 61.9175 3.768C62.4882 3.768 62.9895 3.86133 63.4215 4.048C63.8588 4.22933 64.2455 4.488 64.5815 4.824L64.2055 5.336ZM70.5981 8.352C69.9421 8.37333 69.3821 8.42667 68.9181 8.512C68.4595 8.592 68.0835 8.69867 67.7901 8.832C67.5021 8.96533 67.2915 9.12267 67.1581 9.304C67.0301 9.48533 66.9661 9.688 66.9661 9.912C66.9661 10.1253 67.0008 10.3093 67.0701 10.464C67.1395 10.6187 67.2328 10.7467 67.3501 10.848C67.4728 10.944 67.6141 11.016 67.7741 11.064C67.9395 11.1067 68.1155 11.128 68.3021 11.128C68.5528 11.128 68.7821 11.104 68.9901 11.056C69.1981 11.0027 69.3928 10.928 69.5741 10.832C69.7608 10.736 69.9368 10.6213 70.1021 10.488C70.2728 10.3547 70.4381 10.2027 70.5981 10.032V8.352ZM65.9981 5.04C66.4461 4.608 66.9288 4.28533 67.4461 4.072C67.9635 3.85867 68.5368 3.752 69.1661 3.752C69.6195 3.752 70.0221 3.82667 70.3741 3.976C70.7261 4.12533 71.0221 4.33333 71.2621 4.6C71.5021 4.86667 71.6835 5.18933 71.8061 5.568C71.9288 5.94667 71.9901 6.36267 71.9901 6.816V12H71.3581C71.2195 12 71.1128 11.9787 71.0381 11.936C70.9635 11.888 70.9048 11.7973 70.8621 11.664L70.7021 10.896C70.4888 11.0933 70.2808 11.2693 70.0781 11.424C69.8755 11.5733 69.6621 11.7013 69.4381 11.808C69.2141 11.9093 68.9741 11.9867 68.7181 12.04C68.4675 12.0987 68.1875 12.128 67.8781 12.128C67.5635 12.128 67.2675 12.0853 66.9901 12C66.7128 11.9093 66.4701 11.776 66.2621 11.6C66.0595 11.424 65.8968 11.2027 65.7741 10.936C65.6568 10.664 65.5981 10.344 65.5981 9.976C65.5981 9.656 65.6861 9.34933 65.8621 9.056C66.0381 8.75733 66.3235 8.49333 66.7181 8.264C67.1128 8.03467 67.6275 7.848 68.2621 7.704C68.8968 7.55467 69.6755 7.46933 70.5981 7.448V6.816C70.5981 6.18667 70.4621 5.712 70.1901 5.392C69.9181 5.06667 69.5208 4.904 68.9981 4.904C68.6461 4.904 68.3501 4.94933 68.1101 5.04C67.8755 5.12533 67.6701 5.224 67.4941 5.336C67.3235 5.44267 67.1741 5.54133 67.0461 5.632C66.9235 5.71733 66.8008 5.76 66.6781 5.76C66.5821 5.76 66.4995 5.736 66.4301 5.688C66.3608 5.63467 66.3021 5.57067 66.2541 5.496L65.9981 5.04ZM79.4393 5.824C79.1726 5.46667 78.8846 5.21867 78.5753 5.08C78.2659 4.936 77.9193 4.864 77.5353 4.864C76.7833 4.864 76.2046 5.13333 75.7993 5.672C75.3939 6.21067 75.1913 6.97867 75.1913 7.976C75.1913 8.504 75.2366 8.95733 75.3273 9.336C75.4179 9.70933 75.5513 10.0187 75.7273 10.264C75.9033 10.504 76.1193 10.68 76.3753 10.792C76.6313 10.904 76.9219 10.96 77.2473 10.96C77.7166 10.96 78.1246 10.8533 78.4713 10.64C78.8233 10.4267 79.1459 10.1253 79.4393 9.736V5.824ZM80.8633 0.216V12H80.0153C79.8126 12 79.6846 11.9013 79.6313 11.704L79.5033 10.72C79.1566 11.136 78.7619 11.472 78.3193 11.728C77.8766 11.984 77.3646 12.112 76.7833 12.112C76.3193 12.112 75.8979 12.024 75.5193 11.848C75.1406 11.6667 74.8179 11.4027 74.5513 11.056C74.2846 10.7093 74.0793 10.2773 73.9353 9.76C73.7913 9.24267 73.7193 8.648 73.7193 7.976C73.7193 7.37867 73.7993 6.824 73.9593 6.312C74.1193 5.79467 74.3486 5.34667 74.6473 4.968C74.9459 4.58933 75.3113 4.29333 75.7433 4.08C76.1806 3.86133 76.6713 3.752 77.2153 3.752C77.7113 3.752 78.1353 3.83733 78.4873 4.008C78.8446 4.17333 79.1619 4.40533 79.4393 4.704V0.216H80.8633ZM88.5364 7.064C88.5364 6.73333 88.4884 6.432 88.3924 6.16C88.3017 5.88267 88.1657 5.64533 87.9844 5.448C87.8084 5.24533 87.5924 5.09067 87.3364 4.984C87.0804 4.872 86.7897 4.816 86.4644 4.816C85.7817 4.816 85.2404 5.016 84.8404 5.416C84.4457 5.81067 84.2004 6.36 84.1044 7.064H88.5364ZM89.6884 10.864C89.5124 11.0773 89.3017 11.264 89.0564 11.424C88.811 11.5787 88.547 11.7067 88.2644 11.808C87.987 11.9093 87.699 11.984 87.4004 12.032C87.1017 12.0853 86.8057 12.112 86.5124 12.112C85.9524 12.112 85.435 12.0187 84.9604 11.832C84.491 11.64 84.083 11.3627 83.7364 11C83.395 10.632 83.1284 10.1787 82.9364 9.64C82.7444 9.10133 82.6484 8.48267 82.6484 7.784C82.6484 7.21867 82.7337 6.69067 82.9044 6.2C83.0804 5.70933 83.331 5.28533 83.6564 4.928C83.9817 4.56533 84.379 4.28267 84.8484 4.08C85.3177 3.872 85.8457 3.768 86.4324 3.768C86.9177 3.768 87.3657 3.85067 87.7764 4.016C88.1924 4.176 88.5497 4.41067 88.8484 4.72C89.1524 5.024 89.3897 5.40267 89.5604 5.856C89.731 6.304 89.8164 6.816 89.8164 7.392C89.8164 7.616 89.7924 7.76533 89.7444 7.84C89.6964 7.91467 89.6057 7.952 89.4724 7.952H84.0564C84.0724 8.464 84.1417 8.90933 84.2644 9.288C84.3924 9.66667 84.5684 9.984 84.7924 10.24C85.0164 10.4907 85.283 10.68 85.5924 10.808C85.9017 10.9307 86.2484 10.992 86.6324 10.992C86.9897 10.992 87.2964 10.952 87.5524 10.872C87.8137 10.7867 88.0377 10.696 88.2244 10.6C88.411 10.504 88.5657 10.416 88.6884 10.336C88.8164 10.2507 88.9257 10.208 89.0164 10.208C89.1337 10.208 89.2244 10.2533 89.2884 10.344L89.6884 10.864ZM91.5655 12V3.896H92.4215C92.6242 3.896 92.7495 3.99467 92.7975 4.192L92.9015 5.024C93.2002 4.656 93.5362 4.35467 93.9095 4.12C94.2828 3.88533 94.7148 3.768 95.2055 3.768C95.7495 3.768 96.1895 3.92 96.5255 4.224C96.8668 4.528 97.1122 4.93867 97.2615 5.456C97.3788 5.16267 97.5282 4.90933 97.7095 4.696C97.8962 4.48267 98.1042 4.30667 98.3335 4.168C98.5628 4.02933 98.8055 3.928 99.0615 3.864C99.3228 3.8 99.5868 3.768 99.8535 3.768C100.28 3.768 100.659 3.83733 100.99 3.976C101.326 4.10933 101.608 4.30667 101.838 4.568C102.072 4.82933 102.251 5.152 102.374 5.536C102.496 5.91467 102.558 6.34933 102.558 6.84V12H101.126V6.84C101.126 6.20533 100.987 5.72533 100.71 5.4C100.432 5.06933 100.032 4.904 99.5095 4.904C99.2748 4.904 99.0508 4.94667 98.8375 5.032C98.6295 5.112 98.4455 5.232 98.2855 5.392C98.1255 5.552 97.9975 5.75467 97.9015 6C97.8108 6.24 97.7655 6.52 97.7655 6.84V12H96.3335V6.84C96.3335 6.18933 96.2028 5.704 95.9415 5.384C95.6802 5.064 95.2988 4.904 94.7975 4.904C94.4455 4.904 94.1202 5 93.8215 5.192C93.5228 5.37867 93.2482 5.63467 92.9975 5.96V12H91.5655ZM111.511 3.896L106.991 14.392C106.943 14.4987 106.881 14.584 106.807 14.648C106.737 14.712 106.628 14.744 106.479 14.744H105.423L106.903 11.528L103.559 3.896H104.791C104.913 3.896 105.009 3.928 105.079 3.992C105.153 4.05067 105.204 4.11733 105.231 4.192L107.399 9.296C107.484 9.52 107.556 9.75467 107.615 10C107.689 9.74933 107.769 9.512 107.855 9.288L109.959 4.192C109.991 4.10667 110.044 4.03733 110.119 3.984C110.199 3.92533 110.287 3.896 110.383 3.896H111.511Z" fill="#444444"/>
</svg>

<svg viewBox="0 0 112 15" fill="none" xmlns="http://www.w3.org/2000/svg"><path d="M9.75.54v11.46h-1.55v-5.22h-6.18v5.22h-1.56v-11.46h1.56v5.1h6.18v-5.1h1.55Zm10.68 1.3h-3.7v10.16h-1.55v-10.16h-3.72v-1.3h8.97v1.3Zm13.63-1.3v11.46h-1.36v-8.42a8.56 8.56 0 0 1 .04-.76l-3.93 7.17a.6.6 0 0 1-.56.36h-.23c-.25 0-.43-.12-.56-.36l-4.01-7.2a7 7 0 0 1 .05.79v8.42h-1.36v-11.46h1.14a1 1 0 0 1 .32.04c.07.02.15.1.22.22l3.96 7.06a6.97 6.97 0 0 1 .36.82 9.93 9.93 0 0 1 .36-.83l3.88-7.05c.07-.12.14-.2.21-.22.08-.03.2-.04.33-.04h1.14Zm9.44 10.16v1.3h-6.5v-11.46h1.54v10.16h4.96Zm10.88-2.96-1.8-4.66a9.55 9.55 0 0 1-.34-1.07c-.1.43-.22.79-.34 1.08l-1.8 4.65h4.28Zm3.23 4.26h-1.2a.52.52 0 0 1-.33-.1.64.64 0 0 1-.2-.27l-1.07-2.77h-5.14l-1.07 2.77c-.04.1-.1.18-.19.26a.52.52 0 0 1-.33.11h-1.2l4.58-11.46h1.57l4.58 11.46Zm6.6-6.66a.64.64 0 0 1-.13.13.29.29 0 0 1-.18.05.49.49 0 0 1-.26-.1 3.65 3.65 0 0 0-.88-.44c-.2-.07-.46-.1-.75-.1-.4 0-.76.07-1.06.22-.3.13-.56.34-.77.6-.2.27-.36.6-.46.97-.1.38-.15.8-.15 1.27 0 .5.05.93.16 1.32.12.37.27.7.48.96.2.25.45.45.74.59.3.13.62.2.98.2.35 0 .64-.04.86-.12.22-.09.4-.18.55-.28l.37-.27c.1-.09.2-.13.3-.13.11 0 .2.04.27.13l.4.52c-.18.22-.38.4-.6.56a3.81 3.81 0 0 1-1.54.62 4.9 4.9 0 0 1-.86.07c-.5 0-.98-.1-1.42-.28a3.29 3.29 0 0 1-1.88-2.12 5.33 5.33 0 0 1-.27-1.77c0-.6.08-1.16.25-1.67a3.5 3.5 0 0 1 1.93-2.19c.47-.2 1.01-.31 1.63-.31a3.55 3.55 0 0 1 2.66 1.06l-.37.5Zm6.39 3.01c-.66.02-1.22.08-1.68.16-.46.08-.84.19-1.13.32-.29.14-.5.3-.63.47-.13.19-.2.39-.2.61 0 .22.04.4.11.55.07.16.16.29.28.39.12.1.26.17.42.21.17.05.35.07.53.07a2.65 2.65 0 0 0 1.27-.3 4.36 4.36 0 0 0 1.02-.8v-1.68Zm-4.6-3.31a4.47 4.47 0 0 1 3.17-1.29c.45 0 .85.08 1.2.23a2.48 2.48 0 0 1 1.44 1.59c.12.38.18.8.18 1.25v5.18h-.63a.65.65 0 0 1-.32-.06c-.08-.05-.14-.14-.18-.28l-.16-.76c-.21.2-.42.37-.62.52a3.45 3.45 0 0 1-1.36.62 3.69 3.69 0 0 1-1.73-.04c-.28-.1-.52-.22-.73-.4-.2-.18-.36-.4-.49-.66a2.6 2.6 0 0 1-.17-.96c0-.32.09-.63.26-.92.18-.3.46-.57.86-.8.4-.23.9-.41 1.54-.56.64-.15 1.42-.23 2.34-.25v-.63c0-.63-.14-1.1-.41-1.43-.27-.32-.67-.49-1.2-.49a2.53 2.53 0 0 0-1.5.44c-.17.1-.32.2-.44.3a.64.64 0 0 1-.37.12.42.42 0 0 1-.25-.07.76.76 0 0 1-.18-.2l-.25-.45Zm13.44.78c-.27-.35-.56-.6-.86-.74a2.51 2.51 0 0 0-1.04-.22c-.76 0-1.34.27-1.74.81-.4.54-.6 1.3-.6 2.3 0 .53.04.99.13 1.37.09.37.22.68.4.92.17.24.39.42.65.53.25.11.54.17.87.17.47 0 .87-.1 1.22-.32.35-.21.68-.51.97-.9v-3.92Zm1.42-5.6v11.78h-.84c-.2 0-.34-.1-.39-.3l-.13-.98c-.34.42-.74.75-1.18 1a3 3 0 0 1-1.54.4 2.66 2.66 0 0 1-2.23-1.06 3.75 3.75 0 0 1-.61-1.3 6.67 6.67 0 0 1 .02-3.45c.16-.52.39-.96.69-1.34a3.16 3.16 0 0 1 2.57-1.22 2.9 2.9 0 0 1 2.22.95v-4.48h1.42Zm7.68 6.84c0-.33-.05-.63-.15-.9a1.92 1.92 0 0 0-1.93-1.34c-.68 0-1.22.2-1.62.6-.4.4-.64.94-.74 1.64h4.44Zm1.15 3.8c-.18.22-.39.4-.63.56a4.03 4.03 0 0 1-1.66.61c-.3.06-.6.08-.89.08a4.2 4.2 0 0 1-1.55-.28 3.51 3.51 0 0 1-2.02-2.19 5.51 5.51 0 0 1-.04-3.44 3.68 3.68 0 0 1 1.95-2.12 3.87 3.87 0 0 1 2.93-.06 3.1 3.1 0 0 1 1.78 1.84c.17.44.26.96.26 1.53 0 .23-.03.38-.08.45-.04.07-.13.11-.27.11h-5.41c.01.51.08.96.2 1.34a2.35 2.35 0 0 0 1.33 1.52c.31.12.66.18 1.04.18a3.1 3.1 0 0 0 1.6-.39c.18-.1.34-.18.46-.26a.63.63 0 0 1 .33-.13c.11 0 .2.04.27.13l.4.52Zm1.88 1.14v-8.1h.85c.2 0 .33.1.38.3l.1.82c.3-.36.64-.67 1-.9.38-.23.81-.35 1.3-.35.55 0 .99.15 1.33.45.34.3.58.72.73 1.24a2.65 2.65 0 0 1 1.8-1.6 3.32 3.32 0 0 1 1.93.12c.34.13.62.33.85.59.23.26.41.58.53.97.13.37.19.8.19 1.3v5.16h-1.43v-5.16c0-.63-.14-1.11-.42-1.44-.28-.33-.68-.5-1.2-.5a1.8 1.8 0 0 0-1.22.5c-.16.15-.3.35-.39.6a2.4 2.4 0 0 0-.13.84v5.16h-1.44v-5.16c0-.65-.13-1.14-.39-1.46-.26-.32-.64-.48-1.14-.48-.35 0-.68.1-.98.3-.3.18-.57.43-.82.76v6.04h-1.43Zm19.94-8.1-4.52 10.5c-.05.1-.1.18-.18.25a.5.5 0 0 1-.33.1h-1.06l1.48-3.22-3.34-7.63h1.23c.12 0 .22.03.29.1.07.05.12.12.15.2l2.17 5.1c.08.22.16.45.21.7.08-.25.16-.49.25-.71l2.1-5.1a.44.44 0 0 1 .16-.2.44.44 0 0 1 .26-.1h1.13Z" fill="#444"/></svg>
